public/images/ai26.svg

<svg width="100" height="100" viewBox="0 0 100 100" fill="none" xmlns="http://www.w3.org/2000/svg">
<path d="M19.9663 68.9347C18.6334 68.6518 17.4098 67.6941 16.8417 66.4753C16.5358 65.8441 16.5139 65.6265 16.5139 64.6471C16.5139 63.7765 16.5795 63.4282 16.7761 62.9929C17.3005 61.8176 18.2401 60.9688 19.4419 60.5988L20.0756 60.4029L20.4033 59.2712C20.9714 57.3341 21.3429 55.6582 21.2336 55.1576C21.1899 54.9182 20.884 53.3076 20.6655 51.8276C19.9663 47.3224 19.9007 47.1047 18.7427 46.2776C17.6501 45.4724 17.235 44.9065 16.7106 43.3394C16.5358 42.8388 16.2298 42.4688 14.5036 40.7712C12.5589 38.8559 12.5808 38.8341 12.1001 38.6165C11.6849 38.4424 10.5924 38.2465 10.1554 38.1812L9.36875 38.0506L8.56028 38.8559C7.99216 39.4218 7.4896 39.7918 6.85593 40.0965C6.00375 40.51 5.9382 40.5318 4.95493 40.4882C4.0809 40.4447 3.84054 40.3794 3.20688 40.0529C2.11435 39.4653 1.28402 38.3988 1.04367 37.2888C0.890711 36.5488 0.956263 35.3953 1.21847 34.6988C1.61178 33.7629 2.55136 32.7618 3.49093 32.3265C4.1246 32.0435 4.36496 32 5.26083 32C6.20041 32 6.37522 32.0435 7.07443 32.37C7.577 32.6094 8.05771 32.9576 8.42917 33.3712C9.04099 34.0241 9.60911 35.0471 9.60911 35.4606C9.60911 35.6129 10.1335 36.2441 11.0512 37.1582C12.406 38.5076 12.1001 38.4859 12.8867 38.7688C13.3456 38.9429 14.8533 39.5306 15.6836 39.8788L17.235 40.6188L17.8468 39.77C18.699 38.5947 19.6167 38.3553 21.1025 38.3553C23.1565 38.3553 23.965 38.8776 24.839 40.7276C25.3197 41.7506 25.3415 41.7724 25.9097 41.9465C26.8492 42.2294 27.5048 42.1641 29.0343 41.6418C30.4546 41.1629 33.6011 39.8788 34.5625 39.4C34.8466 39.2476 35.1743 38.9865 35.2617 38.8341C35.5676 38.2682 36.7257 37.3106 37.4249 37.0494C38.3864 36.6794 39.9159 36.7447 40.8555 37.18C41.7077 37.5718 42.4506 38.3118 42.8657 39.1824C43.1716 39.8135 43.1935 39.9659 43.1935 41.0759C43.1935 42.0771 43.1498 42.3818 42.9313 42.8388C42.5598 43.6659 41.6421 44.5582 40.7899 44.95C40.1563 45.2329 39.9378 45.2765 38.9545 45.2765C38.0149 45.2765 37.7527 45.2329 37.2064 44.9718C36.0483 44.4276 35.1743 43.4482 34.8466 42.2947C34.6936 41.7288 34.3658 41.5329 33.1641 41.2282C31.853 40.9018 30.9135 40.9453 29.0343 41.7506C26.3685 42.9041 25.3415 43.8182 24.9264 44.6453C24.686 45.1241 23.6153 46.1688 23.1128 46.43C22.9161 46.5171 22.5665 46.6694 22.3043 46.7347L21.8454 46.8653V49.4335C21.8454 51.1094 21.7362 52.6329 21.6051 53.7647C21.3647 55.7235 21.3866 55.5929 22.1732 58.8141C22.6321 60.7294 22.6539 60.7729 23.0691 61.0341C25.3415 62.4706 25.7786 65.6047 23.9868 67.6288C23.0909 68.6082 21.2992 69.1959 19.9663 68.9347Z" fill="url(#paint0_radial_1_7503)"/>
<path d="M44.4608 52.5676H39.0856V49.3246L38.299 49.3464V49.847C38.299 50.1735 38.299 50.5435 38.2771 50.957C38.2771 51.327 38.2553 51.697 38.2334 52.067C38.2115 52.3935 38.1897 52.5676 38.146 52.5676H35.3054V53.2858H38.2771V64.7776C38.2771 65.9964 38.5612 66.867 39.1511 67.3458C39.7411 67.8246 40.6151 68.0641 41.7951 68.0641C42.2539 68.0641 42.7346 68.0423 43.2153 67.9988C43.6961 67.9552 44.0675 67.9117 44.3079 67.8464V67.1717C44.0894 67.2152 43.7179 67.237 43.1935 67.2805C42.6691 67.3241 42.2539 67.3458 41.9699 67.3458C40.9647 67.3458 40.2218 67.1717 39.7848 66.8017C39.3259 66.4317 39.1074 65.6699 39.1074 64.4946V53.2858H44.4827L44.4608 52.5676ZM52.3708 52.2846C51.0597 52.2846 49.9453 52.5023 49.0276 52.9158C48.1099 53.3294 47.3451 53.8952 46.777 54.6135C46.2089 55.3317 45.7719 56.1588 45.5097 57.1382C45.2474 58.0958 45.1163 59.1188 45.1163 60.207C45.1163 63.0146 45.75 65.0388 46.9955 66.2794C48.2628 67.5199 50.0546 68.1511 52.3708 68.1511C54.7088 68.1511 56.4787 67.4546 57.7023 66.0835C58.9259 64.7123 59.5377 62.7535 59.5377 60.207C59.5377 57.7694 58.9915 55.8541 57.9208 54.4394C56.8938 53.0029 55.0365 52.2846 52.3708 52.2846ZM52.3926 67.3894C50.1857 67.3894 48.5687 66.8017 47.5199 65.6264C46.4711 64.4511 45.9467 62.6446 45.9467 60.1635C45.9467 59.1405 46.0559 58.2046 46.2963 57.3341C46.5366 56.4635 46.9081 55.7017 47.4107 55.0705C47.9132 54.4394 48.5687 53.9388 49.3991 53.5688C50.2294 53.1988 51.2127 53.0246 52.3708 53.0246C54.8399 53.0246 56.5224 53.6776 57.4401 54.9617C58.3578 56.2458 58.8167 57.987 58.8167 60.1852C58.8167 62.5358 58.2704 64.3423 57.1997 65.5611C56.0854 66.7799 54.4903 67.3894 52.3926 67.3894ZM68.1032 52.2846C66.7703 52.2846 65.5904 52.6329 64.6071 53.3511C63.6238 54.0476 62.9901 54.9399 62.7279 56.0064V52.5676H61.9195V67.8682H62.7061V58.5746C62.7061 57.7258 62.859 56.9641 63.1431 56.2676C63.449 55.5929 63.8423 55.0052 64.323 54.5482C64.8256 54.0694 65.3937 53.7211 66.0492 53.4599C66.7048 53.1988 67.3821 53.0899 68.0813 53.0899C68.6495 53.0899 69.2176 53.1117 69.742 53.177C70.2664 53.2423 70.7253 53.3294 71.1186 53.4382V52.5676C70.769 52.4805 70.3538 52.3935 69.8949 52.3499C69.4798 52.3064 68.868 52.2846 68.1032 52.2846ZM77.8486 52.2846C75.5543 52.2846 73.8062 53.0029 72.5826 54.4176C71.3589 55.8323 70.7471 57.7694 70.7471 60.1852C70.7471 62.9494 71.3589 64.9735 72.5826 66.2358C73.8062 67.4982 75.5542 68.1294 77.8049 68.1294C79.9681 68.1294 81.5632 67.6505 82.6339 66.6711C83.6827 65.7135 84.3163 64.5164 84.4911 63.1017H83.7045C83.639 63.6676 83.4642 64.1899 83.2238 64.7123C82.9835 65.2346 82.612 65.6917 82.1313 66.0835C81.6506 66.4752 81.0606 66.8017 80.3614 67.0194C79.6622 67.2588 78.8318 67.3676 77.8704 67.3676C75.8602 67.3676 74.3088 66.8017 73.1944 65.6917C72.1018 64.5817 71.5556 62.7535 71.5556 60.207C71.5556 57.9435 72.08 56.1805 73.1507 54.9399C74.2214 53.6776 75.7728 53.0682 77.8486 53.0682C79.7277 53.0682 81.148 53.4817 82.1313 54.287C83.0927 55.1141 83.6171 56.1805 83.6608 57.5082H84.4693C84.4256 55.9629 83.8793 54.7005 82.7868 53.7211C81.7161 52.7852 80.0773 52.2846 77.8486 52.2846ZM98.9563 56.4417C98.9563 55.0923 98.4755 54.0476 97.536 53.3511C96.5964 52.6546 95.2198 52.2846 93.4499 52.2846C92.0515 52.2846 90.8278 52.5241 89.8008 53.0246C88.7739 53.5252 88.0965 54.2435 87.8124 55.2011V45.6899H87.0258V67.8682H87.8124V57.3776C87.8124 56.6158 87.9654 55.9629 88.2713 55.4188C88.5772 54.8746 88.9924 54.4176 89.4949 54.0911C89.9975 53.7429 90.5875 53.5035 91.2648 53.3294C91.9422 53.1552 92.6414 53.0682 93.3625 53.0682C95.1324 53.0682 96.3779 53.3946 97.0989 54.0694C97.82 54.7441 98.1696 55.6582 98.1696 56.8335V66.3446C98.1696 67.0411 98.1696 67.4764 98.1915 67.6288C98.1915 67.7811 98.2133 67.8682 98.2352 67.8899H99.0437C99.0218 67.8682 99 67.7811 99 67.6288C99 67.4764 98.9781 67.0194 98.9781 66.3011V56.4417H98.9563Z" fill="black"/>
<defs>
<radialGradient id="paint0_radial_1_7503" cx="0" cy="0" r="1" gradientUnits="userSpaceOnUse" gradientTransform="translate(21.1835 42.572) rotate(-10.3048) scale(21.4693 18.8242)">
<stop stop-color="#4FFFFF" stop-opacity="0.894"/>
<stop offset="1" stop-color="#00C4C2" stop-opacity="0.894"/>
</radialGradient>
</defs>
</svg>

<svg xmlns="http://www.w3.org/2000/svg" width="100" height="100" fill="none"><path fill="url(#a)" d="M19.966 68.935c-1.333-.283-2.556-1.24-3.124-2.46-.306-.63-.328-.849-.328-1.828 0-.87.066-1.219.262-1.654.524-1.175 1.464-2.024 2.666-2.394l.634-.196.327-1.132c.568-1.937.94-3.613.83-4.113-.043-.24-.349-1.85-.567-3.33-.7-4.506-.765-4.723-1.923-5.55-1.093-.806-1.508-1.371-2.032-2.939-.175-.5-.481-.87-2.207-2.568-1.945-1.915-1.923-1.937-2.404-2.154-.415-.175-1.508-.37-1.945-.436l-.786-.13-.809.805c-.568.566-1.07.936-1.704 1.24-.852.414-.918.436-1.901.392-.874-.043-1.114-.109-1.748-.435-1.093-.588-1.923-1.654-2.163-2.764-.153-.74-.088-1.894.174-2.59.394-.936 1.333-1.937 2.273-2.372.634-.283.874-.327 1.77-.327.94 0 1.114.044 1.813.37.503.24.984.588 1.355 1.001.612.653 1.18 1.676 1.18 2.09 0 .152.524.783 1.442 1.697 1.355 1.35 1.05 1.328 1.836 1.61.459.175 1.966.763 2.797 1.11l1.551.74.612-.848c.852-1.175 1.77-1.415 3.255-1.415 2.055 0 2.863.523 3.737 2.373.48 1.023.503 1.044 1.07 1.218.94.283 1.596.218 3.125-.304 1.42-.48 4.567-1.763 5.529-2.242.284-.152.611-.413.699-.566.306-.566 1.464-1.523 2.163-1.785.961-.37 2.49-.304 3.43.131a4.26 4.26 0 0 1 2.01 2.002c.307.631.328.784.328 1.894 0 1.001-.043 1.306-.262 1.763-.371.827-1.289 1.72-2.141 2.111-.634.283-.852.326-1.835.326-.94 0-1.202-.043-1.749-.304-1.158-.544-2.032-1.524-2.36-2.677-.152-.566-.48-.762-1.682-1.067-1.311-.326-2.25-.283-4.13.523-2.665 1.153-3.692 2.067-4.108 2.894-.24.48-1.31 1.524-1.813 1.785-.197.087-.546.24-.809.305l-.459.13v2.569c0 1.675-.109 3.199-.24 4.33-.24 1.96-.218 1.829.568 5.05.46 1.915.48 1.959.896 2.22 2.273 1.437 2.71 4.57.918 6.595-.896.98-2.688 1.567-4.02 1.306"/><path fill="#000" d="M44.46 52.568h-5.374v-3.243l-.787.021v.501c0 .326 0 .697-.022 1.11 0 .37-.022.74-.044 1.11-.021.327-.043.5-.087.5h-2.84v.719h2.971v11.492c0 1.218.284 2.089.874 2.568s1.464.718 2.644.718c.459 0 .94-.022 1.42-.065.481-.044.852-.087 1.093-.153v-.674c-.219.043-.59.065-1.114.109-.525.043-.94.065-1.224.065-1.005 0-1.748-.174-2.185-.544-.46-.37-.678-1.132-.678-2.307v-11.21h5.376zm7.91-.283c-1.31 0-2.425.217-3.342.63s-1.683.98-2.251 1.699a6.9 6.9 0 0 0-1.267 2.524q-.394 1.436-.394 3.069c0 2.808.634 4.832 1.88 6.072 1.267 1.24 3.059 1.872 5.375 1.872 2.338 0 4.108-.696 5.331-2.067q1.836-2.057 1.836-5.877c0-2.438-.546-4.353-1.617-5.768-1.027-1.436-2.885-2.154-5.55-2.154m.023 15.104c-2.207 0-3.824-.587-4.873-1.763s-1.573-2.981-1.573-5.463c0-1.022.109-1.958.35-2.829.24-.87.611-1.632 1.114-2.264.502-.63 1.158-1.131 1.988-1.501s1.814-.544 2.972-.544c2.469 0 4.151.653 5.07 1.937q1.376 1.926 1.376 5.223c0 2.35-.547 4.157-1.617 5.376-1.115 1.219-2.71 1.828-4.807 1.828m15.71-15.104c-1.333 0-2.513.348-3.496 1.066-.983.697-1.617 1.589-1.88 2.655v-3.438h-.807v15.3h.786v-9.293c0-.85.153-1.61.437-2.307.306-.675.7-1.263 1.18-1.72a5.3 5.3 0 0 1 1.726-1.088 5.4 5.4 0 0 1 2.032-.37c.569 0 1.137.022 1.661.087q.786.098 1.377.261v-.87a8 8 0 0 0-1.224-.218 19 19 0 0 0-1.792-.065m9.746 0c-2.295 0-4.043.718-5.266 2.133-1.224 1.414-1.836 3.351-1.836 5.767 0 2.764.612 4.788 1.836 6.05 1.223 1.263 2.971 1.894 5.222 1.894 2.163 0 3.758-.479 4.829-1.458 1.049-.958 1.682-2.155 1.857-3.57h-.787c-.065.567-.24 1.089-.48 1.611-.24.523-.612.98-1.093 1.371a5.3 5.3 0 0 1-1.77.936c-.699.24-1.53.349-2.49.349-2.01 0-3.562-.566-4.677-1.676q-1.638-1.665-1.638-5.485c0-2.264.524-4.026 1.595-5.267 1.07-1.262 2.622-1.872 4.698-1.872 1.879 0 3.299.414 4.282 1.219.962.827 1.486 1.894 1.53 3.221h.808c-.043-1.545-.59-2.808-1.682-3.787-1.07-.936-2.71-1.436-4.938-1.436m21.107 4.157c0-1.35-.48-2.394-1.42-3.09-.94-.697-2.316-1.067-4.086-1.067-1.398 0-2.622.24-3.65.74-1.026.5-1.703 1.218-1.988 2.176V45.69h-.786v22.178h.786v-10.49q0-1.143.46-1.96a3.8 3.8 0 0 1 1.223-1.327c.502-.348 1.093-.587 1.77-.762a8.4 8.4 0 0 1 2.097-.26c1.77 0 3.016.326 3.737 1 .721.675 1.07 1.59 1.07 2.764v9.512c0 .696 0 1.131.023 1.284 0 .152.021.24.043.26h.809c-.022-.02-.044-.108-.044-.26s-.022-.61-.022-1.328v-9.86z"/><defs><radialGradient id="a" cx="0" cy="0" r="1" gradientTransform="rotate(-10.305 246.658 -96.179)scale(21.4693 18.8242)" gradientUnits="userSpaceOnUse"><stop stop-color="#4FFFFF" stop-opacity=".894"/><stop offset="1" stop-color="#00C4C2" stop-opacity=".894"/></radialGradient></defs></svg>
